sources/design/Outline/Ω.svg

<svg:svg xmlns:cc="http://creativecommons.org/ns#" xmlns:dc="http://purl.org/dc/elements/1.1/" xmlns:inkscape="http://www.inkscape.org/namespaces/inkscape" xmlns:rdf="http://www.w3.org/1999/02/22-rdf-syntax-ns#" xmlns:sodipodi="http://sodipodi.sourceforge.net/DTD/sodipodi-0.dtd" xmlns:svg="http://www.w3.org/2000/svg" xml:space="preserve" width="1000" height="1000" version="1.1" style="clip-rule:evenodd;fill-rule:evenodd;image-rendering:optimizeQuality;shape-rendering:geometricPrecision;text-rendering:geometricPrecision" viewBox="0 0 1000 1000" id="svg10" sodipodi:docname="Ω.svg" inkscape:version="1.0.2 (e86c870879, 2021-01-15)"><svg:metadata id="metadata14"><rdf:RDF><cc:Work rdf:about=""><dc:format>image/svg+xml</dc:format><dc:type rdf:resource="http://purl.org/dc/dcmitype/StillImage" /><dc:title /></cc:Work></rdf:RDF></svg:metadata><sodipodi:namedview pagecolor="#ffffff" bordercolor="#666666" borderopacity="1" objecttolerance="10" gridtolerance="10" guidetolerance="10" inkscape:pageopacity="0" inkscape:pageshadow="2" inkscape:window-width="1920" inkscape:window-height="1007" id="namedview12" showgrid="false" inkscape:zoom="0.42445442" inkscape:cx="401.02161" inkscape:cy="460.8965" inkscape:window-x="1920" inkscape:window-y="0" inkscape:window-maximized="1" inkscape:current-layer="svg10" showguides="true" inkscape:guide-bbox="true" inkscape:document-rotation="0" inkscape:pagecheckerboard="0"><sodipodi:guide position="0,1000" orientation="0,1" id="guide16" inkscape:label="" inkscape:locked="true" inkscape:color="rgb(0,0,255)" /><sodipodi:guide position="1763.3122,2036.1693" orientation="1000,0" id="guide18" /><sodipodi:guide position="0,200" orientation="0,1" id="guide20" inkscape:label="base" inkscape:locked="true" inkscape:color="rgb(0,0,255)" /><inkscape:grid type="xygrid" id="grid24" originx="-473.37552" originy="-489.69235" /><sodipodi:guide position="0,0" orientation="0,1" id="guide34" inkscape:label="bottom" inkscape:locked="true" inkscape:color="rgb(0,0,255)" /><sodipodi:guide position="225.05109,1693.3186" orientation="0,1" id="guide44" inkscape:label="" inkscape:locked="false" inkscape:color="rgb(0,0,255)" /><sodipodi:guide position="0,900" orientation="0,1" id="guide46" inkscape:label="" inkscape:locked="true" inkscape:color="rgb(0,0,255)" /><sodipodi:guide position="646.71255,740.84379" orientation="1,0" id="guide841" inkscape:label="width" />    <sodipodi:guide position="535.98217,799.74293" orientation="0,-1" id="guide848" /><sodipodi:guide position="369.2976,298.51125" orientation="0,-1" id="guide850" /><sodipodi:guide position="288.01679,251.39194" orientation="0,-1" id="guide852" /></sodipodi:namedview>
 <svg:defs id="defs4"><inkscape:path-effect effect="fillet_chamfer" id="path-effect854" is_visible="true" lpeversion="1" satellites_param="F,0,0,1,0,12.495047,0,1 @ F,0,1,1,0,10.557412,0,1 @ F,0,0,1,0,0,0,1 @ F,0,0,1,0,0,0,1 @ F,0,0,1,0,0,0,1 @ F,0,0,1,0,0,0,1 @ F,0,0,1,0,0,0,1 @ F,0,0,1,0,0,0,1 @ F,0,0,1,0,0,0,1 @ F,0,1,1,0,10.557412,0,1 @ F,0,0,1,0,12.495047,0,1 @ F,0,0,1,0,12.495047,0,1 @ F,0,0,1,0,0,0,1 @ F,0,0,1,0,0,0,1 @ F,0,0,1,0,0,0,1 @ F,0,0,1,0,0,0,1 @ F,0,0,1,0,0,0,1 @ F,0,0,1,0,0,0,1 @ F,0,0,1,0,0,0,1 @ F,0,0,1,0,0,0,1 @ F,0,0,1,0,0,0,1 @ F,0,0,1,0,0,0,1 @ F,0,0,1,0,0,0,1 @ F,0,0,1,0,0,0,1 @ F,0,0,1,0,0,0,1 @ F,0,0,1,0,12.495047,0,1" unit="px" method="auto" mode="F" radius="0" chamfer_steps="1" flexible="false" use_knot_distance="true" apply_no_radius="true" apply_with_radius="true" only_selected="true" hide_knots="false" /><inkscape:path-effect effect="spiro" id="path-effect849" is_visible="true" lpeversion="1" /><inkscape:path-effect effect="spiro" id="path-effect851" is_visible="true" lpeversion="1" />
  <svg:style type="text/css" id="style2">
   
    .fil0 {fill:#EF7F1A;fill-rule:nonzero}
   
  </svg:style>
 <inkscape:path-effect effect="spiro" id="path-effect1214" is_visible="true" lpeversion="1" /><inkscape:path-effect effect="spiro" id="path-effect1195" is_visible="true" lpeversion="1" /><inkscape:path-effect effect="spiro" id="path-effect992" is_visible="true" lpeversion="1" /><inkscape:path-effect effect="spiro" id="path-effect1060" is_visible="true" lpeversion="1" /><inkscape:path-effect effect="spiro" id="path-effect1047" is_visible="true" lpeversion="1" /><inkscape:path-effect effect="spiro" id="path-effect1085" is_visible="true" lpeversion="1" /><inkscape:path-effect effect="spiro" id="path-effect1286" is_visible="true" lpeversion="1" /><inkscape:path-effect effect="spiro" id="path-effect885" is_visible="true" lpeversion="1" /></svg:defs>
 
<svg:g id="path883"><svg:path style="color:#000000;fill:#1a5fb4;fill-rule:nonzero;stroke-linecap:round;stroke-linejoin:round;-inkscape-stroke:none;paint-order:fill stroke markers" d="M 313.24805,170.17969 C 307.68622999999997,170.01470999999998 302.10638,170.04706 296.51757999999995,170.2832 C 256.3421599999999,171.98076 217.42148999999995,184.14271 183.22851999999995,204.02929999999998 C 149.08220999999995,223.88873999999998 120.01971999999995,251.14545999999999 97.21874999999994,282.58788999999996 C 51.62927899999994,345.45555999999993 32.401732999999936,422.77013 32.54687499999994,497.86913999999996 C 32.68692999999994,570.3361 50.71679699999994,642.1875699999999 83.85156199999994,706.33789 C 71.27527499999994,700.9544500000001 59.367659999999944,693.86165 48.691405999999944,685.27539 C 41.116961999999944,679.18373 27.452134999999945,672.72645 12.109374999999943,678.50977 C -3.233385300000057,684.29308 -9.644027500000057,699.23963 -10.884766000000056,709.16992 L -20.218750000000057,783.8828100000001 C -23.214527,807.85963 -3.6691068,830.0 20.494141,830.0 L 263.23242,830.0 C 266.94041,830.0 271.00154,829.88327 276.93164,827.7207 C 282.86174,825.55814 292.99473,819.39684 296.79297,807.15039 C 300.59121000000005,794.90394 295.84963000000005,784.39649 292.32812,779.2988300000001 C 288.80662,774.20117 285.61581,771.7577600000001 282.625,769.60937 C 250.05068,746.2103 221.90948,716.44014 200.42187,682.59766 C 165.21798,627.15232 148.33629000000002,559.39655 157.85156,496.01172 C 164.11011000000002,454.32116 182.08346,414.36818000000005 210.38281,385.82422 C 238.38157,357.58345 278.34012,340.31374000000005 316.1875,342.24609000000004 C 353.20176,344.13592000000006 390.40698,364.36927000000003 415.94921999999997,394.01758000000007 C 441.76604999999995,423.9846100000001 457.40349999999995,463.82740000000007 462.875,505.19727000000006 C 471.08174,567.24823 457.30209,632.6299200000001 430.13867,691.8281200000001 C 416.8918,720.6975200000002 400.61177,748.2024500000001 381.67969,773.7128900000001 C 376.17992,781.1236700000002 369.90456,795.5152200000001 377.46875,810.8339800000001 C 385.03294,826.15275 400.63833,830.0 409.94531,830.0 L 633.53711,830.0 C 657.79066,830.0 677.34376,807.60638 674.07422,783.57422 L 664.04102,709.8261699999999 C 662.7087,700.0332199999999 656.22243,684.9227599999999 640.46484,679.37109 C 624.70726,673.81943 611.34582,680.85735 604.04687,687.0332 C 591.52668,697.6269199999999 576.83533,705.8272 561.2890600000001,710.87109 C 560.56798,711.10505 559.8180400000001,711.2562399999999 559.0918,711.47656 C 581.13198,651.2158499999999 592.5674300000001,587.12226 592.32227,522.8476599999999 C 592.00719,440.2445899999999 571.86438,354.54185999999993 520.99609,285.33593999999994 C 495.53776,250.70005999999995 462.75982999999997,220.93510999999995 424.10546999999997,200.26757999999995 C 390.21993999999995,182.14982999999995 352.18076999999994,171.33450999999997 313.24805,170.17968999999994 L 313.24805,170.17969 M 311.45311999999996,230.16210999999998 C 340.44962999999996,231.05184999999997 369.70163999999994,239.21781 395.81444999999997,253.17969 C 425.72963,269.17458999999997 452.05794999999995,292.85523 472.65038999999996,320.87109 C 513.88366,376.96866 532.04417,450.17136 532.32227,523.07812 C 532.57079,588.23243 519.19181,653.55321 493.73828000000003,713.62305 C 491.40240000000006,713.0933100000001 489.06047,712.58704 486.76562,711.92578 C 516.26111,645.78357 532.16534,571.48755 522.35742,497.33008000000007 C 515.6110500000001,446.32094000000006 496.40985000000006,395.48611000000005 461.40625000000006,354.8554700000001 C 426.12806000000006,313.9061000000001 375.29406000000006,285.1858400000001 319.2460900000001,282.3242200000001 C 261.8258600000001,279.39254000000005 206.9378700000001,304.08105000000006 167.7753900000001,343.5820300000001 C 128.9135100000001,382.7798200000001 106.42047000000011,434.4594000000001 98.5175780000001,487.1035200000001 C 95.7172960000001,505.7572500000001 94.7857390000001,524.5000300000002 95.4414060000001,543.1289100000001 C 93.6153690000001,528.0590600000002 92.5761600000001,512.9064800000001 92.5468750000001,497.75391000000013 C 92.4218640000001,433.07099000000017 109.3205900000001,368.10310000000015 145.79102000000012,317.81055000000015 C 164.01999000000012,292.67288000000013 187.12286000000012,271.17296000000016 213.39258000000012,255.89453000000015 C 239.61562000000012,240.64324000000013 269.39741000000015,231.48343000000014 299.05078000000015,230.23047000000014 C 303.1727500000001,230.05630000000014 307.31077000000016,230.03500000000014 311.4531200000001,230.16207000000014 L 311.45311999999996,230.16210999999998 M 44.025391,753.64062 C 50.105655999999996,756.88598 56.288251,759.94422 62.669922,762.5800800000001 C 69.741478,765.50088 76.992236,767.8789700000001 84.3125,770.0000000000001 L 41.982422,770.0000000000001 L 44.025391,753.64062 M 609.65039,755.12109 L 611.67383,770.0 L 572.39258,770.0 C 574.86371,769.31096 577.3611,768.7368 579.8066399999999,767.94336 C 590.1479299999999,764.5881899999999 600.0894799999999,760.20327 609.6503899999999,755.12109 L 609.65039,755.12109" id="path2037" /></svg:g></svg:svg>

<svg:svg xmlns:cc="http://creativecommons.org/ns#" xmlns:dc="http://purl.org/dc/elements/1.1/" xmlns:inkscape="http://www.inkscape.org/namespaces/inkscape" xmlns:rdf="http://www.w3.org/1999/02/22-rdf-syntax-ns#" xmlns:sodipodi="http://sodipodi.sourceforge.net/DTD/sodipodi-0.dtd" xmlns:svg="http://www.w3.org/2000/svg" xml:space="preserve" width="1000" height="1000" version="1.1" style="clip-rule:evenodd;fill-rule:evenodd;image-rendering:optimizeQuality;shape-rendering:geometricPrecision;text-rendering:geometricPrecision" viewBox="0 0 1000 1000" id="svg10" sodipodi:docname="Ω.svg" inkscape:version="1.0.2 (e86c870879, 2021-01-15)"><svg:metadata id="metadata14"><rdf:RDF><cc:Work rdf:about=""><dc:format>image/svg+xml</dc:format><dc:type rdf:resource="http://purl.org/dc/dcmitype/StillImage" /><dc:title /></cc:Work></rdf:RDF></svg:metadata><sodipodi:namedview pagecolor="#ffffff" bordercolor="#666666" borderopacity="1" objecttolerance="10" gridtolerance="10" guidetolerance="10" inkscape:pageopacity="0" inkscape:pageshadow="2" inkscape:window-width="1920" inkscape:window-height="1007" id="namedview12" showgrid="false" inkscape:zoom="0.42445442" inkscape:cx="401.02161" inkscape:cy="460.8965" inkscape:window-x="1920" inkscape:window-y="0" inkscape:window-maximized="1" inkscape:current-layer="svg10" showguides="true" inkscape:guide-bbox="true" inkscape:document-rotation="0" inkscape:pagecheckerboard="0"><sodipodi:guide position="0,1000" orientation="0,1" id="guide16" inkscape:label="" inkscape:locked="true" inkscape:color="rgb(0,0,255)" /><sodipodi:guide position="1763.3122,2036.1693" orientation="1000,0" id="guide18" /><sodipodi:guide position="0,200" orientation="0,1" id="guide20" inkscape:label="base" inkscape:locked="true" inkscape:color="rgb(0,0,255)" /><inkscape:grid type="xygrid" id="grid24" originx="-473.37552" originy="-489.69235" /><sodipodi:guide position="0,0" orientation="0,1" id="guide34" inkscape:label="bottom" inkscape:locked="true" inkscape:color="rgb(0,0,255)" /><sodipodi:guide position="225.05109,1693.3186" orientation="0,1" id="guide44" inkscape:label="" inkscape:locked="false" inkscape:color="rgb(0,0,255)" /><sodipodi:guide position="0,900" orientation="0,1" id="guide46" inkscape:label="" inkscape:locked="true" inkscape:color="rgb(0,0,255)" /><sodipodi:guide position="646.71255,740.84379" orientation="1,0" id="guide841" inkscape:label="width" />    <sodipodi:guide position="535.98217,799.74293" orientation="0,-1" id="guide848" /><sodipodi:guide position="369.2976,298.51125" orientation="0,-1" id="guide850" /><sodipodi:guide position="288.01679,251.39194" orientation="0,-1" id="guide852" /></sodipodi:namedview>
 <svg:defs id="defs4"><inkscape:path-effect effect="fillet_chamfer" id="path-effect854" is_visible="true" lpeversion="1" satellites_param="F,0,0,1,0,12.495047,0,1 @ F,0,1,1,0,10.557412,0,1 @ F,0,0,1,0,0,0,1 @ F,0,0,1,0,0,0,1 @ F,0,0,1,0,0,0,1 @ F,0,0,1,0,0,0,1 @ F,0,0,1,0,0,0,1 @ F,0,0,1,0,0,0,1 @ F,0,0,1,0,0,0,1 @ F,0,1,1,0,10.557412,0,1 @ F,0,0,1,0,12.495047,0,1 @ F,0,0,1,0,12.495047,0,1 @ F,0,0,1,0,0,0,1 @ F,0,0,1,0,0,0,1 @ F,0,0,1,0,0,0,1 @ F,0,0,1,0,0,0,1 @ F,0,0,1,0,0,0,1 @ F,0,0,1,0,0,0,1 @ F,0,0,1,0,0,0,1 @ F,0,0,1,0,0,0,1 @ F,0,0,1,0,0,0,1 @ F,0,0,1,0,0,0,1 @ F,0,0,1,0,0,0,1 @ F,0,0,1,0,0,0,1 @ F,0,0,1,0,0,0,1 @ F,0,0,1,0,12.495047,0,1" unit="px" method="auto" mode="F" radius="0" chamfer_steps="1" flexible="false" use_knot_distance="true" apply_no_radius="true" apply_with_radius="true" only_selected="true" hide_knots="false" /><inkscape:path-effect effect="spiro" id="path-effect849" is_visible="true" lpeversion="1" /><inkscape:path-effect effect="spiro" id="path-effect851" is_visible="true" lpeversion="1" />
  <svg:style type="text/css" id="style2">
   
    .fil0 {fill:#EF7F1A;fill-rule:nonzero}
   
  </svg:style>
 <inkscape:path-effect effect="spiro" id="path-effect1214" is_visible="true" lpeversion="1" /><inkscape:path-effect effect="spiro" id="path-effect1195" is_visible="true" lpeversion="1" /><inkscape:path-effect effect="spiro" id="path-effect992" is_visible="true" lpeversion="1" /><inkscape:path-effect effect="spiro" id="path-effect1060" is_visible="true" lpeversion="1" /><inkscape:path-effect effect="spiro" id="path-effect1047" is_visible="true" lpeversion="1" /><inkscape:path-effect effect="spiro" id="path-effect1085" is_visible="true" lpeversion="1" /><inkscape:path-effect effect="spiro" id="path-effect1286" is_visible="true" lpeversion="1" /><inkscape:path-effect effect="spiro" id="path-effect885" is_visible="true" lpeversion="1" /></svg:defs>
 
<svg:g id="path883"><svg:path style="color:#000000;fill:#1a5fb4;fill-rule:nonzero;stroke-linecap:round;stroke-linejoin:round;-inkscape-stroke:none" d="m 313.24805,170.17969 c -5.56182,-0.16498 -11.14167,-0.13263 -16.73047,0.10351 -40.17542,1.69756 -79.09609,13.85951 -113.28906,33.7461 -34.14631,19.85944 -63.2088,47.11616 -86.00977,78.55859 -45.589471,62.86767 -64.817017,140.18224 -64.671875,215.28125 0.140055,72.46696 18.169922,144.31843 51.304687,208.46875 -12.576287,-5.38344 -24.483902,-12.47624 -35.160156,-21.0625 -7.574444,-6.09166 -21.239271,-12.54894 -36.582031,-6.76562 -15.3427603,5.78331 -21.7534025,20.72986 -22.994141,30.66015 l -9.333984,74.71289 C -23.214527,807.85963 -3.6691068,830 20.494141,830 H 263.23242 c 3.70799,0 7.76912,-0.11673 13.69922,-2.2793 5.9301,-2.16256 16.06309,-8.32386 19.86133,-20.57031 3.79824,-12.24645 -0.94334,-22.7539 -4.46485,-27.85156 -3.5215,-5.09766 -6.71231,-7.54107 -9.70312,-9.68946 -32.57432,-23.39907 -60.71552,-53.16923 -82.20313,-87.01171 -35.20389,-55.44534 -52.08558,-123.20111 -42.57031,-186.58594 6.25855,-41.69056 24.2319,-81.64354 52.53125,-110.1875 27.99876,-28.24077 67.95731,-45.51048 105.80469,-43.57813 37.01426,1.88983 74.21948,22.12318 99.76172,51.77149 25.81683,29.96703 41.45428,69.80982 46.92578,111.17969 8.20674,62.05096 -5.57291,127.43265 -32.73633,186.63085 -13.24687,28.8694 -29.5269,56.37433 -48.45898,81.88477 -5.49977,7.41078 -11.77513,21.80233 -4.21094,37.12109 C 385.03294,826.15275 400.63833,830 409.94531,830 h 223.5918 c 24.25355,0 43.80665,-22.39362 40.53711,-46.42578 l -10.0332,-73.74805 c -1.33232,-9.79295 -7.81859,-24.90341 -23.57618,-30.45508 -15.75758,-5.55166 -29.11902,1.48626 -36.41797,7.66211 -12.52019,10.59372 -27.21154,18.794 -42.75781,23.83789 -0.72108,0.23396 -1.47102,0.38515 -2.19726,0.60547 22.04018,-60.26071 33.47563,-124.3543 33.23047,-188.6289 -0.31508,-82.60307 -20.45789,-168.3058 -71.32618,-237.51172 -25.45833,-34.63588 -58.23626,-64.40083 -96.89062,-85.06836 -33.88553,-18.11775 -71.9247,-28.93307 -110.85742,-30.08789 z m -1.79493,59.98242 c 28.99651,0.88974 58.24852,9.0557 84.36133,23.01758 29.91518,15.9949 56.2435,39.67554 76.83594,67.6914 41.23327,56.09757 59.39378,129.30027 59.67188,202.20703 0.24852,65.15431 -13.13046,130.47509 -38.58399,190.54493 -2.33588,-0.52974 -4.67781,-1.03601 -6.97266,-1.69727 29.49549,-66.14221 45.39972,-140.43823 35.5918,-214.5957 -6.74637,-51.00914 -25.94757,-101.84397 -60.95117,-142.47461 -35.27819,-40.94937 -86.11219,-69.66963 -142.16016,-72.53125 -57.42023,-2.93168 -112.30822,21.75683 -151.4707,61.25781 -38.86188,39.19779 -61.35492,90.87737 -69.257812,143.52149 -2.800282,18.65373 -3.731839,37.39651 -3.076172,56.02539 -1.826037,-15.06985 -2.865246,-30.22243 -2.894531,-45.375 -0.125011,-64.68292 16.773715,-129.65081 53.244145,-179.94336 18.22897,-25.13767 41.33184,-46.63759 67.60156,-61.91602 26.22304,-15.25129 56.00483,-24.4111 85.6582,-25.66406 4.12197,-0.17417 8.25999,-0.19547 12.40234,-0.0684 z M 44.025391,753.64062 c 6.080265,3.24536 12.26286,6.3036 18.644531,8.93946 7.071556,2.9208 14.322314,5.29889 21.642578,7.41992 H 41.982422 Z M 609.65039,755.12109 611.67383,770 h -39.28125 c 2.47113,-0.68904 4.96852,-1.2632 7.41406,-2.05664 10.34129,-3.35517 20.28284,-7.74009 29.84375,-12.82227 z" id="path2037" /></svg:g></svg:svg>
